colormatch.cie
IT8.7/2

ORIGINATOR "Pascal de Bruijn"
DESCRIPTOR "ColorMatch 468"
CREATED  "Jun 09, 2019"
MANUFACTURER "Do It Yourself"

NUMBER_OF_FIELDS 4
BEGIN_DATA_FORMAT
SAMPLE_ID XYZ_X XYZ_Y XYZ_Z
END_DATA_FORMAT

NUMBER_OF_SETS 468
BEGIN_DATA
E06	95.10649 100.0000 108.8440
X06	26.04703 17.14457 10.03197
J11	31.42348 21.29888 33.06438
L17	38.98669 24.11830 62.64694
U06	47.16172 32.46412 73.36937
P01	1.485182 1.510411 1.556008
E18	1.684832 1.720443 1.784803
J01	1.943213 1.992260 2.080902
M18	2.274103 2.340356 2.460095
B07	2.694563 2.782680 2.941933
I14	3.225843 3.341587 3.550769
A06	3.894569 4.045086 4.317115
G16	4.734325 4.928509 5.279457
E16	5.787770 6.036733 6.486682
T11	7.109510 7.427203 8.001368
Y10	8.770032 9.174072 9.904291
H16	10.86117 11.37395 12.30069
V14	13.50377 14.15396 15.32905
P17	16.85869 17.68334 19.17372
T09	34.86187 27.83477 21.82147
H14	11.89366 9.907063 5.904981
X03	16.02356 14.56642 12.44209
X07	32.72806 46.90576 65.67442
N04	38.61013 53.24191 83.30573
P11	43.23644 60.72377 84.51539
P09	56.94890 70.20350 88.13448
Q16	19.90585 10.21651 95.47388
M04	21.11315 11.28294 95.61614
M07	42.23147 53.44493 102.6424
H18	1.104054 1.109465 1.119244
Q04	1.214229 1.225369 1.245502
P10	3.614592 2.516524 2.366369
A17	9.619703 5.495800 4.204279
H01	13.36658 6.954856 20.59780
D09	31.53424 21.82867 74.99394
V05	12.82606 6.470941 43.79321
U14	18.67599 9.517345 52.61257
K03	25.64142 13.27628 60.57123
L05	30.30465 17.94746 66.22568
U07	6.162393 8.409586 11.70690
H04	12.50668 16.34754 27.93967
O17	15.34867 18.24251 39.25479
C16	21.74098 23.95715 61.94864
O10	47.40247 69.91435 88.48441
T08	42.50529 74.94574 13.08767
X08	50.12789 78.87598 13.44486
K10	61.70064 84.84292 13.98713
C15	23.20396 35.45996 17.55936
O04	35.35041 48.94764 21.12448
F07	57.20913 81.82202 45.59769
J14	68.29735 87.45620 49.86069
F09	22.06124 41.65664 10.22340
Q01	35.31122 63.54387 29.47487
D15	50.29505 69.42778 92.37147
D10	60.89736 82.36167 107.2410
R17	2.606727 3.303460 4.340636
I06	4.241153 4.275944 9.945687
A10	10.32217 8.327511 36.88157
Y06	15.16999 12.63850 45.38111
Y07	32.76111 48.38975 50.18146
Q03	41.63603 59.53847 53.69594
T12	14.12293 8.510508 63.14327
X05	20.56145 18.37627 73.43003
Y03	8.571501 5.693001 35.74535
C14	13.51260 13.25561 40.88714
N14	19.66213 19.66807 49.01780
C06	31.49284 39.96738 54.11008
Y05	43.08370 23.88815 5.399617
Z10	44.46234 24.62122 12.10068
E14	48.47186 29.64733 22.66397
F14	21.31999 11.88783 3.138967
T18	28.66161 16.53553 6.748290
D17	33.28689 19.21235 18.39365
C09	37.70776 22.11168 39.31425
K07	49.75324 27.97008 97.32883
F16	21.79479 38.50358 20.51502
B04	27.41649 47.34129 27.51754
Z09	38.19538 59.66058 38.46603
J08	14.75563 27.86185 7.576175
L13	20.28315 36.14377 9.006025
A07	31.32916 48.01755 15.14324
Z02	51.16732 68.08044 33.94567
F15	6.826452 7.089012 18.70652
X15	10.22569 11.34777 23.51362
K11	19.19018 17.02042 62.64437
P14	26.31259 25.68400 80.47164
C04	32.99891 32.41662 83.96172
K05	24.76318 11.79692 82.23159
X12	59.70128 29.19948 97.04219
Z06	2.782437 1.834436 4.901420
U16	5.366117 3.580587 6.547388
U11	6.226400 3.453031 12.15411
N10	9.626908 4.805274 30.41451
V08	12.99196 8.297615 38.46593
R04	25.22881 23.38697 67.33618
T03	38.51632 50.09092 72.09266
I09	49.37708 66.69049 75.17034
G10	48.36938 37.86368 28.54740
S03	59.61253 47.58068 39.77724
J05	2.820566 1.728111 10.58911
T14	12.05602 5.421709 59.23318
N17	18.87111 8.147314 95.12896
Q14	23.86268 18.12907 96.79283
E05	27.47638 24.55349 97.84261
Q12	34.30945 36.98103 99.88160
S12	40.70007 42.20694 100.5538
W02	68.69992 71.49317 104.7322
K14	5.323902 7.767414 4.560096
X13	8.716308 12.02228 7.941056
K16	24.85233 42.24300 13.53594
H15	34.88699 57.46914 21.63043
A09	43.92688 65.26293 33.05103
O14	54.29091 70.81647 56.40593
U04	23.16657 11.82483 29.31299
G02	29.30056 16.25401 31.53402
J02	48.44690 29.08047 50.89691
C01	22.43164 43.85729 8.143941
K08	26.21947 48.77697 8.894084
D18	31.27700 55.92023 10.95355
N01	41.44134 74.34694 15.30458
L18	44.36508 75.71318 21.81646
M12	32.49791 58.32322 15.07458
P13	36.40521 71.80052 12.80184
F04	37.73404 72.48567 12.86410
Y11	49.39430 78.42611 16.64334
S16	53.70194 80.39731 28.12053
Z18	16.11702 7.560222 78.29293
M14	19.24438 13.03370 80.64773
L11	24.49676 17.13993 96.56850
U05	16.26020 23.27195 28.43359
I02	23.43301 35.90767 33.31961
J10	33.90599 55.28790 38.43265
Z14	20.09087 8.776228 95.18612
V15	24.15115 10.86972 95.37637
A18	13.01823 23.94016 5.730077
G01	25.45936 41.29812 8.515302
V07	31.46255 51.41641 9.127429
Z12	35.38974 58.34877 13.05253
N11	44.47676 68.32969 20.14626
J04	67.73163 78.76940 86.11863
N15	32.76745 22.30304 3.438973
T04	30.72338 21.75708 6.840195
L08	42.89765 38.93530 35.61834
Y12	47.01704 40.63007 52.77126
Q10	66.38335 53.37250 65.92902
G14	4.928618 3.807813 1.335076
G08	9.792297 7.724364 1.834924
C13	39.15401 41.48027 6.804369
X04	50.92402 59.78698 9.718192
F18	64.53489 67.45526 10.48153
F08	37.10814 34.59161 54.73908
E10	50.25836 44.12481 74.15379
L14	64.34012 58.24206 78.73184
R01	1.000000 1.000000 1.000000
R13	1.333074 1.350394 1.381696
R03	4.270631 6.570305 2.310271
U13	43.64320 54.53145 60.41909
Y04	54.75406 63.76675 72.57404
X17	5.689652 8.096103 8.003067
V06	15.01291 18.33791 29.65256
T15	23.89174 32.11283 41.13185
W13	33.52105 39.95875 46.01624
M05	39.82501 53.35474 41.79480
Y02	47.37478 57.39177 43.24198
G03	64.00231 74.24661 55.65897
D11	3.036048 3.665623 1.407308
Q17	6.660729 6.357330 2.574027
P06	21.09899 21.08859 4.539692
W09	39.19627 30.42212 5.392375
S09	47.50772 40.90201 7.209860
O09	59.10319 52.46743 21.39544
F01	14.35794 7.838128 3.849530
Q15	24.77470 13.14394 7.275795
P08	30.94802 16.14771 15.65353
S08	2.194082 1.615673 1.055953
A03	3.215478 2.911820 1.713836
N02	6.227800 8.197304 3.072417
L02	10.82730 12.03395 6.395815
A11	22.63442 29.43920 17.29471
B17	14.03574 7.639408 63.02307
P18	18.56630 11.20683 72.93741
D03	26.60896 20.05294 74.64912
A13	31.38384 58.25196 17.15903
T01	40.43472 73.61716 24.76920
E17	52.83802 79.33228 56.04329
A02	74.23978 89.99511 73.83441
R16	88.36504 97.30385 73.33615
M06	18.25204 10.02539 23.92151
K01	23.19411 13.88004 33.73239
J15	35.87121 27.47760 55.82930
V01	10.66730 5.825994 8.606170
Y14	14.48752 8.793954 14.19086
P12	20.37511 13.49738 18.92711
W06	29.91805 19.49528 46.83802
K15	23.07105 14.18572 47.69273
Q08	26.39938 20.28854 49.61060
B08	62.45736 83.88973 74.65097
K02	68.80292 86.43780 107.6115
U03	80.18386 92.30585 108.1448
C05	27.31988 15.90651 2.491170
V12	43.54568 23.62240 67.39557
R08	52.67648 31.63246 76.71213
P05	64.57369 38.94294 98.66634
E11	10.67516 18.69798 9.312563
J06	19.19330 31.40444 23.91157
V02	23.76546 35.75745 26.62902
F02	30.69827 43.24287 38.84194
P15	16.98302 17.24342 6.236604
L12	22.54806 20.69908 17.65657
N09	32.00867 30.79954 23.24830
L16	13.59874 11.14749 3.258569
S13	20.05902 15.16901 4.668228
E04	24.57860 22.48107 9.006828
R07	39.47256 29.98258 10.45713
C12	7.067163 7.421031 13.83905
Z17	11.19678 9.873514 19.74789
O07	28.84454 19.27954 20.32641
Z08	19.29087 14.37959 10.86502
W16	25.13912 20.09146 25.90885
C08	43.03760 47.05616 31.52679
H08	52.65159 54.80128 44.82333
C03	8.337381 14.65217 4.647478
O06	9.586350 15.44600 9.466942
Q09	14.82671 25.93680 12.16714
J16	17.75272 29.65726 12.66379
V09	38.84802 46.38310 21.42997
U12	41.83017 22.05217 2.913230
M11	42.47189 22.30882 6.293261
A01	43.92883 22.89150 13.96708
X14	47.64691 24.37850 33.55058
C07	50.83934 27.85585 43.57877
V10	58.95531 38.37176 63.90554
G11	13.94224 10.39581 54.11557
H13	22.62312 16.42028 78.14323
H11	58.14146 43.09293 81.13802
R12	71.69617 53.18591 101.0405
G06	35.10094 59.90101 28.09746
D12	46.52788 76.24261 48.35226
S05	43.03510 24.46170 3.314878
I03	45.66555 29.27148 5.580652
W05	58.43386 54.13263 11.90895
O12	68.80101 71.14429 26.83650
U02	61.62170 84.75548 16.09312
S11	62.40994 85.02738 22.20117
S04	67.70210 87.51605 33.28006
L01	34.95869 17.75752 36.51660
O05	52.78313 26.43266 60.60361
G13	55.38398 29.52936 67.96020
U17	60.90032 31.59724 97.44188
M02	20.53368 24.42922 47.79048
X09	28.04050 33.54769 64.83075
Z13	72.26790 75.97381 82.67149
I13	19.42267 37.07781 7.368581
V13	27.63475 53.72027 10.71046
L07	31.84994 60.78125 11.91053
Q05	41.54597 67.44471 12.39803
I01	8.075665 5.154196 2.173916
Z01	12.98041 7.760720 2.738195
R10	18.80474 11.70250 5.052476
N06	30.20303 24.07639 12.95623
J09	39.97604 30.69901 33.73435
B03	9.147200 5.544059 12.01355
H09	20.46775 12.39358 57.57094
A08	31.72707 27.47886 72.73347
F17	39.10059 30.50016 98.37826
F10	41.54575 53.49027 102.6872
P07	54.27632 78.94783 106.9308
Z07	55.53994 79.59936 106.9900
Y09	14.31917 6.739930 65.26468
Z04	16.00794 7.374291 63.25658
O18	21.19583 10.91606 74.38469
D05	25.37162 14.85753 79.35953
O13	40.66842 30.13359 80.99774
B02	5.896950 10.09068 4.796852
T05	12.96118 19.77722 20.84454
R06	22.05412 33.22763 38.47193
S07	28.39732 44.01579 44.47034
D06	38.01265 58.78111 62.21025
O08	42.25783 62.72644 65.97901
V17	17.22540 9.747966 8.107849
C02	23.51977 13.62695 13.25829
J07	44.03391 30.62154 47.57213
S15	54.28175 41.00286 53.64266
O16	11.15980 21.31676 4.386629
S02	14.10522 23.31891 7.275168
B16	20.59244 30.21497 10.22696
M08	28.07045 38.01944 11.20134
U10	35.89694 42.88969 12.86962
V04	48.22256 54.71700 19.35440
I05	57.48749 66.49797 32.15718
N05	15.94135 28.87460 5.593676
E01	18.22292 30.29912 6.351533
W15	34.99374 50.74484 10.10570
T10	47.60719 68.38727 13.18355
Z11	22.40445 10.64834 64.63983
L09	32.67234 15.26327 95.77566
B09	43.22859 20.70611 96.27031
H03	44.56242 22.45909 96.53843
H12	25.18724 28.58918 10.47348
W07	33.79389 33.18037 14.05016
H06	43.39571 40.46217 22.55082
Z05	55.88300 54.19813 30.12879
A05	33.74458 18.50707 3.480382
U18	35.30562 21.63557 5.187713
F11	62.69140 74.73308 20.64815
A15	25.01121 47.73153 12.96424
I11	30.42793 50.75199 38.86055
I15	38.98624 64.09762 49.90314
D08	48.70532 76.85960 71.27748
J12	15.55124 17.23311 3.367075
I10	28.25759 23.61008 5.355254
C17	36.39894 33.62449 8.005874
I17	46.13676 39.71194 14.88605
W14	5.306941 2.820382 19.26770
I18	12.08256 6.587852 25.67979
Q06	16.35077 9.615727 34.91485
Q02	53.54209 35.11942 38.74706
O03	11.85161 7.650430 6.185222
V03	5.757775 3.402517 3.506953
N18	19.37871 10.21900 13.46553
K13	26.77217 14.34160 20.84986
I12	40.40649 25.19636 28.27148
G04	36.21483 22.05900 11.18840
I08	40.94919 28.57400 18.56351
V18	22.07263 33.62974 6.188633
M15	26.19065 35.48233 7.138507
T16	45.94808 46.07406 8.144242
M03	59.20537 64.14586 11.28400
B11	67.33780 71.77431 15.38181
K18	14.94867 8.191981 1.653610
J17	25.22714 13.49159 2.135241
X18	28.86538 15.33215 3.900196
R18	33.34764 17.84730 9.470824
A12	38.31609 20.18665 30.23703
Y01	42.68135 22.09258 49.16825
X01	3.812440 2.591233 10.13385
G18	6.143760 4.448727 12.90553
N03	8.871730 5.554995 21.10863
D13	19.68640 14.45450 28.09175
B10	31.91578 27.03509 38.22137
U15	69.90210 77.38592 46.62049
Z16	25.71484 30.01933 5.299890
W01	37.88897 51.94289 8.890587
E15	43.02845 60.18018 15.48351
H17	50.48166 68.41263 22.58716
W11	83.24914 95.25781 46.39019
T07	7.520482 8.975330 2.196049
D04	11.37530 12.69197 3.462729
U08	36.58697 43.74880 8.568822
D16	47.66511 58.20006 12.92421
W17	13.54779 20.08579 4.023245
E09	17.56119 23.00712 5.467525
F05	28.25413 30.19234 7.032437
P02	45.53677 46.24818 12.06164
D14	57.62408 59.12595 17.80876
M13	69.37316 67.18148 42.77714
B01	47.72478 33.83974 4.878117
W03	50.89185 39.10966 9.213133
Y13	4.877505 8.753926 2.292513
Q13	7.307752 12.03795 2.798428
K12	14.62528 20.74843 13.77415
V11	17.92128 23.87953 23.67103
D02	25.79401 32.95709 28.96164
H10	34.46702 42.47707 29.68891
M01	36.96704 72.02522 15.76108
Y15	38.12446 72.60923 16.39101
S14	42.51861 74.35320 40.14056
X02	42.91153 74.40264 47.07131
G09	47.83255 76.37073 72.99084
O02	54.04063 79.47885 77.46949
E08	7.089014 5.149433 26.53209
B15	15.19342 11.66550 31.69704
F06	21.26323 18.96730 43.66887
H02	9.367228 13.29532 15.64745
N16	11.03975 14.06815 16.35708
M10	21.14266 22.19007 24.08306
K04	26.65182 27.98570 30.39643
E02	56.57478 51.17661 42.78527
L10	62.27584 58.84011 58.86322
R02	82.29057 74.37176 104.5720
S06	1.397126 1.158825 3.091705
U01	2.461992 2.093469 6.168357
P03	38.84766 20.55766 19.28504
C18	46.97396 25.42925 25.93552
T02	6.872160 4.027705 1.275159
Y18	15.01296 9.421216 1.887503
R05	24.27431 15.58698 3.501588
N13	53.94492 69.78884 12.09293
B18	62.87709 76.30406 14.45301
Q11	2.025387 3.050488 1.341799
L06	3.118250 4.681812 2.839745
W08	15.50556 14.11347 54.85141
F12	24.20066 27.47999 70.15139
G07	31.55722 33.51600 99.35770
N08	6.312938 3.124840 28.98379
W12	8.186220 4.457214 31.04061
G15	33.92222 16.86119 79.74574
B12	38.89381 21.72268 80.94496
D01	16.29453 8.037282 40.01677
L03	24.15169 12.55678 41.30467
O11	33.30714 17.43193 54.69903
S01	28.56660 14.02439 55.95546
A04	41.10381 20.26064 66.83163
L15	48.84832 24.56467 80.38115
Y17	19.64441 14.76916 52.90383
P16	29.10099 18.94678 96.67478
J18	18.87163 8.979130 83.93097
R15	24.05850 12.35053 95.66709
G17	31.14013 57.97106 20.31492
E03	39.02397 72.84786 26.59512
B06	46.17856 76.37962 34.02353
M17	21.49710 39.09724 14.77075
N07	25.63993 43.81312 20.74804
I07	32.23030 47.96007 26.53464
C10	18.18550 22.94164 45.04614
A16	25.09242 33.09522 57.98996
W04	30.68485 36.79949 81.73161
R09	36.30805 42.56859 87.28764
M09	11.02400 5.114555 49.03196
H07	15.81764 8.783210 56.80623
X16	31.35587 15.86886 95.96189
C11	37.60928 22.20847 96.85627
T17	49.16254 32.45915 98.22646
F03	56.22330 43.48886 99.98364
E12	65.38385 58.42161 102.3836
Q07	15.13770 23.79316 17.39573
T13	28.07899 31.72572 18.17162
K06	33.79707 35.50251 38.58474
B13	43.15862 45.35085 49.31287
K09	55.57200 58.40973 63.53835
G12	76.32277 73.88398 67.28250
X10	20.55433 16.57128 2.975820
Y08	32.49840 28.39302 4.628688
J03	54.59220 47.57267 7.167277
B14	77.23538 92.85269 14.71507
O01	77.80234 93.07943 17.70131
R14	79.67509 93.82842 27.56529
F13	10.29463 15.90644 4.265162
E13	13.87243 19.10022 7.826950
Y16	18.09370 21.22983 10.90134
N12	41.55330 44.03715 67.34259
M16	53.33607 55.05228 84.42929
G05	37.71663 40.89155 76.50478
X11	45.36278 54.41091 83.72710
P04	53.93971 61.19719 103.5221
H05	9.103853 4.679160 41.25424
Q18	11.93656 7.366869 46.19771
T06	31.87116 27.48110 98.17626
J13	49.89396 46.49046 100.8964
E07	46.84733 29.91255 11.28578
S17	52.30848 38.68580 19.72921
W18	4.933789 3.143022 18.61074
O15	7.491001 5.488322 22.50916
K17	11.24376 9.580367 29.53762
Z15	15.73802 16.17106 29.35305
A14	21.73172 25.44357 36.22695
W10	28.12202 30.50927 58.01923
D07	7.437111 5.571944 4.379700
Z03	10.37734 8.078125 10.75383
U09	14.30992 10.67302 19.00304
S10	21.49973 19.18436 31.67215
B05	28.76589 28.87919 47.77038
I16	40.46245 36.24951 81.33846
S18	4.380665 3.775368 14.41677
I04	9.669363 10.69734 27.44854
V16	23.27887 32.16533 46.28918
R11	31.69631 43.15365 65.84712
L04	46.91000 58.12965 103.3002
END_DATA
